X: 4362
T: Miss Erskine of Alvas
C: D.Dow
%R: reel
B: Niel Gow & Sons "Complete Repository" v.4 p.36 #2
Z: 2021 John Chambers <jc:trillian.mit.edu>
M: C|
L: 1/8
K: A
% - - - - - - - - - -
% Voice 1 formatted for compactness and proofreading.
V: 1 staves=2
a |\
{f}e2A2 ce-e=g | fd=gd BGGf |\
{f}e2A2ce-e=g | fd=gf Te2A :| g |\
aefd ce-e=g | fd=gd BGG^g |
aefd cAec | d=gBd Te2A^g |\
aefd ceAc | dB=gd BdGB |\
Acea (ga) ce | d=gBd Te2A |]
% - - - - - - - - - -
% Voice 2 preserves the book's staff layout.
V: 2 clef=bass middle=d
z |\
a2a2 a2c'2 | d'2b2=g2g2 | a2a2 a2c'2 | d'2e'2 a2a :| z | a2a2 a2c'2 | d'2b2=g2gz |
a2a2 a2c'2 | d'2e'2 a2az | a2a2 a2c'2 | d'2b2 =g2g2 | a2a2 A2c2 | d2e2 A2A |]


